!!!COM:	la Rue, Pierre de
!!!CDT:	~1452///-1518/11/20
!!!OPR:	Missa Pro fidelibus defunctis
!!!ONM:	7b
!!!OTL:	Communio II
!!!AGN:	Mass; Communio II
!!!SCT:	Rue1024g.b
!!!SCA:	Rue1024g.b
!!!voices-OPR:	4
!!!voices:	4
**kern	**kern	**kern	**kern
*Ivox	*Ivox	*Ivox	*Ivox
*I"Bassus	*I"Tenor	*I"Contra	*I"Discantus
*I'B	*I'T	*I'C	*I'D
*staff4	*staff3	*staff2	*staff1
*>[A,B]	*>[A,B]	*>[A,B]	*>[A,B]
*>A	*>A	*>A	*>A
*clefF4	*clefGv2	*clefGv2	*clefG2
*k[]	*k[]	*k[]	*k[]
*M2/1	*M2/1	*M2/1	*M2/1
*met(C2)	*met(C2)	*met(C2)	*met(C2)
=1-	=1-	=1-	=1-
!!section: Luceat eis
!!!OMD: Luceat eis
0F	0c	0f	0a
=2.	=2.	=2.	=2.
0A	0c	0f	0cc
=3	=3	=3	=3
0G	0d	0g	0b
=4.	=4.	=4.	=4.
0C	0c	0e	1.cc
.	.	.	2b\
=5	=5	=5	=5
0C	0c	0e	2a/
.	.	.	2g/
.	.	.	[1g
=6.	=6.	=6.	=6.
1r	1r	1r	1g]
[1D	[1A	[1d	[1f
=7	=7	=7	=7
1D]	1A]	1d]	1f]
1GG	1B	1d	1g
=8.	=8.	=8.	=8.
0GGl	0Bl	0dl	0gl
=9	=9	=9	=9
*clefF4	*clefGv2	*clefGv2	*clefG2
*k[]	*k[]	*k[]	*k[]
*M3/1	*M3/1	*M3/1	*M3/1
*met(3)	*met(3)	*met(3)	*met(3)
!!section: Cum sanctis
!!!OMD: Cum sanctis
0.r	0.r	0d	0.r
.	.	1f	.
=10.	=10.	=10.	=10.
0.r	0.r	1e	0.r
.	.	1.f	.
.	.	2d\	.
=11	=11	=11	=11
0.r	0.r	0d	0a
.	.	1c	1cc
=12.	=12.	=12.	=12.
0.r	0.r	1d	1b
.	.	1.e	1.cc
.	.	2f\	2a/
=13	=13	=13	=13
0F	0A	0f	0a
1F	1c	1f	1r
=14.	=14.	=14.	=14.
1G	1B	1d	0g
1.E	1.c	1.e	.
.	.	.	1g
2F\	2A/	2c\	.
=15	=15	=15	=15
0F	0A	1c	1.a
.	.	1.d	.
.	.	.	2g/
1r	1r	.	1f
.	.	2G/	.
=16.	=16.	=16.	=16.
0C	0c	0G	[0.e
[1C	1A	1r	.
=17	=17	=17	=17
*	*	*M3/1	*
*	*	*met(C2)	*
*	*	*rscale:3/2	*
1C]	1G	[0.c	1e]
1.F	1.A	.	1.f
2C/	2G/	.	2e/
=18.	=18.	=18.	=18.
0.C	1G	0.c]	0.e
.	1.A	.	.
.	2E/	.	.
*	*	*rscale:1	*
=19	=19	=19	=19
*M2/1	*	*	*M2/1
*met(C2)	*	*	*met(C2)
*	*rscale:3/2	*	*
0C	0E	[0c	0g
*	*rscale:1	*	*
=20.	=20	=20.	=20.
*	*M2/1	*	*
*	*met(C2)	*	*
0AA	0F	1c]	0a
.	.	1A	.
=21	=21.	=21	=21
1GG	0G	1d	1b
1C	.	1e	[1cc
=22.	=22	=22.	=22.
2AA/	[0A	2c\	2cc\]
2BB/	.	2d\	2b\
1C	.	1e	2a/
.	.	.	2g/
=23	=23.	=23	=23
[0D	0A]	1d	2f/
.	.	.	2e/
.	.	[1f	[1d
=24.	=24	=24.	=24.
1D]	[0A	1f]	1d]
1C	.	1e	[1g
=25	=25.	=25	=25
0D	0A]	0d	2g/]
.	.	.	2f/
.	.	.	1f
=26.	=26	=26.	=26.
1r	[0Gl	2r	2r
.	.	1e	1g
1GG	.	.	.
.	.	2d\	2f/
=27	=27.	=27	=27
0C	0G_	2c\	2e/
.	.	2B\	2d/
.	.	1c	1e
=28.	=28	=28.	=28.
0GGl	0G]	0Bl	0dl
!!LO:LB:i:g=z
=29||	=29||	=29||	=29||
*>B	*>B	*>B	*>B
*clefF4	*clefGv2	*clefGv2	*clefG2
*k[]	*k[]	*k[]	*k[]
*M2/1	*M2/1	*M3/1	*M2/1
*met(C2)	*met(C2)	*met(C2)	*met(C2)
!!section: Et lux perpetua
!!!OMD: Et lux perpetua
1C	1c	1e	1g
[1F	[1c	[1f	[1a
=30.	=30.	=30.	=30.
1F]	1c]	1f]	1a]
1F	1c	1f	1a
=31	=31	=31	=31
1F	1c	1f	1a
1F	1c	1f	1a
=32.	=32.	=32.	=32.
0C	0c	0e	1g
.	.	.	[1cc
=33	=33	=33	=33
1r	0d	1r	2cc\]
.	.	.	4b\
.	.	.	4a/
1G	.	[1g	1b
=34.	=34.	=34.	=34.
1A	1.c	2g\]	1e
.	.	2c\	.
[1F	.	[1f	[1a
.	2B\	.	.
=35	=35	=35	=35
2F\]	1B	2f\]	2a/]
2G\	.	2e\	2g/
1E	1G	1c	[1g
=36.	=36.	=36.	=36.
0D	0A	0d	2g/]
.	.	.	2f#i/
.	.	.	1f#i
=37	=37	=37	=37
[0GGl	[0Gl	[0Bl	[0gl
=.	=.	=.	=.
0GG]	0G]	0B]	0g]
!!LO:TX:i:Y=40:rj:t=[Cum sanctis tuis ut supra]
=||	=||	=||	=||
*-	*-	*-	*-
!!!RDF**kern: l=long note in original notation
!!!RDF**kern: i=editorial accidental
!!!ENC:	Chris Gage 05-02-2013
!!!END:	2013/08/01/
!!!EED:	Jesse Rodin
!!!EEV:	2013/08/02/
!!!ONB:	Translated from MusicXML and edited on 2013/08/02/ by Craig Sapp
!!muse2ps: T^@{OPR}^u^@{ONM}{. }@{OTL}^C^@{COM}^i2I150v85,85,85,150Q16
